X:73
T:Roy’s Wife. RH.073
T:Roy’s Wife of Aldivalloch,aka. RH.073
R:Strathspey
S:Rev.R.Harrison’s MS,c1815,Cumbria
O:England
A:Temple Sowerby,Cumbria
Z:vmp.Simon Wilson. Review PJH, 2008.
M:C
L:1/8
Q:2/4=60
K:D
B|A<FF>D F>EF>B|A<FF>D E>DE>F|\
A>FE>D d>ef>e|d>BA>F E>DE:|!
|:B|A>F d>F A>Fd>c|B>Ad>F B>AB>d|\
A>FE>D d>ef>e|(f/e/)(c/B/) (d/B/)(A/F/) EDE:|

